svgs/sharp-solid/truck-arrow-right.svg

<svg xmlns="http://www.w3.org/2000/svg" viewBox="0 0 640 512"><!--! Font Awesome Pro 6.6.0 by @fontawesome - https://fontawesome.com License - https://fontawesome.com/license (Commercial License) Copyright 2024 Fonticons, Inc. --><path d="M416 0L0 0 0 416l64 0c0 53 43 96 96 96s96-43 96-96l128 0c0 53 43 96 96 96s96-43 96-96l32 0 32 0 0-64-32 0 0-64 0-32 0-32 0-13.3-9.4-9.4-96-96L493.3 96 480 96l-64 0 0-96zM544 240l0 16-128 0 0-96 48 0 2.7 0L544 237.3l0 2.7zM160 368a48 48 0 1 1 0 96 48 48 0 1 1 0-96zm272 48a48 48 0 1 1 96 0 48 48 0 1 1 -96 0zM257 95l80 80 17 17-17 17-80 80-17 17L206.1 272l17-17 39-39L96 216l-24 0 0-48 24 0 166.1 0-39-39-17-17L240 78.1l17 17z"/></svg>

<svg xmlns="http://www.w3.org/2000/svg" viewBox="0 0 640 512"><!--! Font Awesome Pro 6.4.2 by @fontawesome - https://fontawesome.com License - https://fontawesome.com/license (Commercial License) Copyright 2023 Fonticons, Inc. --><path d="M416 0H0V416H64c0 53 43 96 96 96s96-43 96-96H384c0 53 43 96 96 96s96-43 96-96h32 32V352H608V288 256 224 210.7l-9.4-9.4-96-96L493.3 96H480 416V0zM544 240v16H416V160h48 2.7L544 237.3V240zM160 368a48 48 0 1 1 0 96 48 48 0 1 1 0-96zm272 48a48 48 0 1 1 96 0 48 48 0 1 1 -96 0zM257 95l80 80 17 17-17 17-80 80-17 17L206.1 272l17-17 39-39H96 72V168H96 262.1l-39-39-17-17L240 78.1l17 17z"/></svg>
